urcenter/urcenter/img/steps/img-2.svg

<svg width="55" height="55" viewBox="0 0 55 55" fill="none" xmlns="http://www.w3.org/2000/svg">
<g clip-path="url(#clip0)">
<path d="M50.4652 29.6422C50.4652 43.5088 39.2241 54.7498 25.3576 54.7498C11.491 54.7498 0.25 43.5088 0.25 29.6422C0.25 15.7757 11.491 4.53467 25.3576 4.53467C39.2241 4.53467 50.4652 15.7757 50.4652 29.6422Z" stroke="black" stroke-width="0.5"/>
<path d="M43.4949 29.6422C43.4949 39.6591 35.3746 47.7795 25.3576 47.7795C15.3407 47.7795 7.22034 39.6591 7.22034 29.6422C7.22034 19.6252 15.3407 11.5049 25.3576 11.5049C35.3746 11.5049 43.4949 19.6252 43.4949 29.6422Z" stroke="black" stroke-width="0.5"/>
<path d="M36.5245 29.6425C36.5245 35.8098 31.5249 40.8094 25.3576 40.8094C19.1903 40.8094 14.1907 35.8098 14.1907 29.6425C14.1907 23.4752 19.1903 18.4756 25.3576 18.4756C31.5249 18.4756 36.5245 23.4752 36.5245 29.6425Z" stroke="black" stroke-width="0.5"/>
<path d="M25.3575 34.089C27.8133 34.089 29.8041 32.0982 29.8041 29.6424C29.8041 27.1866 27.8133 25.1958 25.3575 25.1958C22.9017 25.1958 20.9109 27.1866 20.9109 29.6424C20.9109 32.0982 22.9017 34.089 25.3575 34.089Z" fill="url(#paint0_linear)"/>
<path d="M48.8654 0.115666L43.3025 5.67851C43.0634 5.91763 42.9386 6.24784 42.9599 6.58526L43.282 11.718L49.836 5.16406L49.535 0.368751C49.5138 0.0312319 49.1045 -0.123456 48.8654 0.115666Z" fill="url(#paint1_linear)"/>
<path d="M54.8846 6.13462L49.3217 11.6975C49.0826 11.9366 48.7524 12.0614 48.415 12.0401L43.2822 11.718L49.8362 5.16406L54.6315 5.46506C54.9689 5.48622 55.1236 5.89561 54.8846 6.13462Z" fill="url(#paint2_linear)"/>
<path d="M25.3576 30.222C25.2089 30.222 25.0609 30.1655 24.9476 30.0522C24.7212 29.8259 24.7212 29.4588 24.9476 29.2324L52.6578 1.52233C52.8843 1.29594 53.2513 1.29594 53.4778 1.52233C53.7041 1.74869 53.7041 2.11578 53.4777 2.34212L25.7675 30.0522C25.6543 30.1654 25.5063 30.222 25.3576 30.222Z" stroke="black" stroke-width="0.5"/>
</g>
<defs>
<linearGradient id="paint0_linear" x1="25.3575" y1="25.1958" x2="25.3575" y2="34.089" gradientUnits="userSpaceOnUse">
<stop stop-color="#4614E8"/>
<stop offset="1" stop-color="#BCA7FF"/>
</linearGradient>
<linearGradient id="paint1_linear" x1="46.3967" y1="0" x2="46.3967" y2="11.718" gradientUnits="userSpaceOnUse">
<stop stop-color="#4614E8"/>
<stop offset="1" stop-color="#BCA7FF"/>
</linearGradient>
<linearGradient id="paint2_linear" x1="49.1412" y1="5.16406" x2="49.1412" y2="12.0425" gradientUnits="userSpaceOnUse">
<stop stop-color="#4614E8"/>
<stop offset="1" stop-color="#BCA7FF"/>
</linearGradient>
<clipPath id="clip0">
<rect width="55" height="55" fill="white"/>
</clipPath>
</defs>
</svg>

<svg width="55" height="55" fill="none" xmlns="http://www.w3.org/2000/svg"><g clip-path="url(#clip0)"><path d="M50.465 29.642c0 13.867-11.24 25.108-25.107 25.108C11.49 54.75.25 43.509.25 29.642c0-13.866 11.241-25.107 25.108-25.107 13.866 0 25.107 11.24 25.107 25.107z" stroke="#000" stroke-width=".5"/><path d="M43.495 29.642c0 10.017-8.12 18.137-18.137 18.137-10.017 0-18.138-8.12-18.138-18.137 0-10.017 8.12-18.137 18.138-18.137 10.017 0 18.137 8.12 18.137 18.137z" stroke="#000" stroke-width=".5"/><path d="M36.525 29.642c0 6.168-5 11.167-11.167 11.167-6.168 0-11.167-5-11.167-11.166 0-6.168 5-11.167 11.167-11.167s11.167 5 11.167 11.166z" stroke="#000" stroke-width=".5"/><path d="M25.358 34.089a4.447 4.447 0 100-8.893 4.447 4.447 0 000 8.893z" fill="url(#paint0_linear)"/><path d="M48.865.116l-5.563 5.563a1.177 1.177 0 00-.342.906l.322 5.133 6.554-6.554L49.535.37a.393.393 0 00-.67-.253z" fill="url(#paint1_linear)"/><path d="M54.885 6.135l-5.563 5.563a1.18 1.18 0 01-.907.342l-5.133-.322 6.554-6.554 4.796.301c.337.021.492.43.253.67z" fill="url(#paint2_linear)"/><path d="M25.358 30.222a.58.58 0 01-.41-.99l27.71-27.71a.58.58 0 01.82.82l-27.71 27.71a.577.577 0 01-.41.17z" stroke="#000" stroke-width=".5"/></g><defs><linearGradient id="paint0_linear" x1="25.358" y1="25.196" x2="25.358" y2="34.089" gradientUnits="userSpaceOnUse"><stop stop-color="#4614E8"/><stop offset="1" stop-color="#BCA7FF"/></linearGradient><linearGradient id="paint1_linear" x1="46.397" y1="0" x2="46.397" y2="11.718" gradientUnits="userSpaceOnUse"><stop stop-color="#4614E8"/><stop offset="1" stop-color="#BCA7FF"/></linearGradient><linearGradient id="paint2_linear" x1="49.141" y1="5.164" x2="49.141" y2="12.043" gradientUnits="userSpaceOnUse"><stop stop-color="#4614E8"/><stop offset="1" stop-color="#BCA7FF"/></linearGradient><clipPath id="clip0"><path fill="#fff" d="M0 0h55v55H0z"/></clipPath></defs></svg>
